X: 38838
T: Summer Without Sun
R: barndance
M: 4/4
K: Cmajor
cAGE Gged|cAGE GDCA|GAcd egge|d2dc dcAG|
c2Ec gded|cAGE GDcA|GAcd egge|dGAB c4|
Gccd eccd|ecgc eccA|GAcd egae|gfge d2cA|
Gccd eccd|gcac gedA|GAcd egge|dGAB c4|

